assets/img/braze_icons/rows-01.svg

<svg fill="none" height="24" viewBox="0 0 24 24" width="24" xmlns="http://www.w3.org/2000/svg"><g clip-rule="evenodd" fill="#801ed7" fill-rule="evenodd"><path d="m22 17.1615v.677c0 .5272 0 .982-.0306 1.3565-.0323.3954-.1036.7886-.2964 1.167-.2876.5645-.7465 1.0234-1.311 1.311-.3784.1928-.7716.2641-1.167.2964-.3745.0306-.8293.0306-1.3565.0306h-11.67702c-.52716 0-.98193 0-1.35651-.0306-.39534-.0323-.78856-.1036-1.16694-.2964-.56449-.2876-1.02343-.7465-1.31105-1.311-.19279-.3784-.26411-.7716-.29641-1.167-.0306-.3745-.03059-.8293-.03057-1.3564v-.6772c-.00002-.5271-.00003-.9819.03057-1.3564.0323-.3954.10362-.7886.29641-1.167.28762-.5645.74656-1.0234 1.31105-1.311.37838-.1928.7716-.2641 1.16694-.2964.37458-.0306.82934-.0306 1.35649-.0306h11.67704c.5272 0 .982 0 1.3565.0306.3954.0323.7886.1036 1.167.2964.5645.2876 1.0234.7465 1.311 1.311.1928.3784.2641.7716.2964 1.167.0306.3745.0306.8293.0306 1.3565z"/><path d="m22 6.16146v.67709c0 .52714 0 .98191-.0306 1.35648-.0323.39535-.1036.78856-.2964 1.16694-.2876.56449-.7465 1.02343-1.311 1.31103-.3784.1928-.7716.2641-1.167.2964-.3745.0306-.8293.0306-1.3565.0306h-11.67702c-.52716 0-.98193 0-1.35651-.0306-.39534-.0323-.78856-.1036-1.16694-.2964-.56449-.2876-1.02343-.74654-1.31105-1.31103-.19279-.37838-.26411-.7716-.29641-1.16694-.0306-.37457-.03059-.82932-.03057-1.35646v-.67713c-.00002-.52714-.00003-.9819.03057-1.35647.0323-.39534.10362-.78856.29641-1.16694.28762-.56449.74656-1.02343 1.31105-1.31105.37838-.19279.7716-.26411 1.16694-.29641.37458-.0306.82934-.03059 1.35649-.03057h11.67704c.5272-.00002.982-.00003 1.3565.03057.3954.0323.7886.10362 1.167.29641.5645.28762 1.0234.74656 1.311 1.31105.1928.37838.2641.7716.2964 1.16694.0306.37458.0306.82934.0306 1.35649z"/></g></svg>

<svg width="24" height="24" viewBox="0 0 24 24" fill="none" xmlns="http://www.w3.org/2000/svg">
<path fill-rule="evenodd" clip-rule="evenodd" d="M22 17.1615V17.8385C22 18.3657 22 18.8205 21.9694 19.195C21.9371 19.5904 21.8658 19.9836 21.673 20.362C21.3854 20.9265 20.9265 21.3854 20.362 21.673C19.9836 21.8658 19.5904 21.9371 19.195 21.9694C18.8205 22 18.3657 22 17.8385 22H6.16148C5.63432 22 5.17955 22 4.80497 21.9694C4.40963 21.9371 4.01641 21.8658 3.63803 21.673C3.07354 21.3854 2.6146 20.9265 2.32698 20.362C2.13419 19.9836 2.06287 19.5904 2.03057 19.195C1.99997 18.8205 1.99998 18.3657 2 17.8386L2 17.1614C1.99998 16.6343 1.99997 16.1795 2.03057 15.805C2.06287 15.4096 2.13419 15.0164 2.32698 14.638C2.6146 14.0735 3.07354 13.6146 3.63803 13.327C4.01641 13.1342 4.40963 13.0629 4.80497 13.0306C5.17955 13 5.63431 13 6.16146 13L17.8385 13C18.3657 13 18.8205 13 19.195 13.0306C19.5904 13.0629 19.9836 13.1342 20.362 13.327C20.9265 13.6146 21.3854 14.0735 21.673 14.638C21.8658 15.0164 21.9371 15.4096 21.9694 15.805C22 16.1795 22 16.6343 22 17.1615Z" fill="#801ED7"/>
<path fill-rule="evenodd" clip-rule="evenodd" d="M22 6.16146V6.83855C22 7.36569 22 7.82046 21.9694 8.19503C21.9371 8.59038 21.8658 8.98359 21.673 9.36197C21.3854 9.92646 20.9265 10.3854 20.362 10.673C19.9836 10.8658 19.5904 10.9371 19.195 10.9694C18.8205 11 18.3657 11 17.8385 11L6.16148 11C5.63432 11 5.17955 11 4.80497 10.9694C4.40963 10.9371 4.01641 10.8658 3.63803 10.673C3.07354 10.3854 2.6146 9.92646 2.32698 9.36197C2.13419 8.98359 2.06287 8.59037 2.03057 8.19503C1.99997 7.82046 1.99998 7.36571 2 6.83857L2 6.16144C1.99998 5.6343 1.99997 5.17954 2.03057 4.80497C2.06287 4.40963 2.13419 4.01641 2.32698 3.63803C2.6146 3.07354 3.07354 2.6146 3.63803 2.32698C4.01641 2.13419 4.40963 2.06287 4.80497 2.03057C5.17955 1.99997 5.63431 1.99998 6.16146 2L17.8385 2C18.3657 1.99998 18.8205 1.99997 19.195 2.03057C19.5904 2.06287 19.9836 2.13419 20.362 2.32698C20.9265 2.6146 21.3854 3.07354 21.673 3.63803C21.8658 4.01641 21.9371 4.40963 21.9694 4.80497C22 5.17955 22 5.63431 22 6.16146Z" fill="#801ED7"/>
</svg>
